X:1
T:IX. Goe nightly cares,
T:IX. Goe nightly cares,
T:Altus.
T:John Dowland
C:John Dowland
L:1/8
M:4/4
K:F
V:1 treble 
V:1
 z16 | z4 D4 c4 B4 | A8 z8 | z8 z4 D4 c4 B4 A6 F2 | E2 E2 D4 G8 | ^F4 z4 z8 | %6
w: |Goe night- ly|cares,|Goe night- ly cares, the|e- nem- y to|rest,|
w: |False world fare-|well|False world fare- well, the|e- nem- y to|rest,|
 z2 d4 c4 B2 AA c4 B2 A2 D2 | E6 E2 D4 z4 | z4 D4 D2 E2 F2 G2 A4 z4 | G4 G2 A2 B2 c2 d4- | %10
w: For- beare, for- beare a while to vexe my|griev- ed sprite,|So long, so long your weight,|so long, so long, your weight|
w: Now do, now do thy worst, I doe not|weigh thy spight:|Free from, free from thy cares,|free from, free from thy cares,|
 d6 c2 B2 A2 G3 G | F8 z8 | z2 D2 F2 C2 D4 z4 | z2 D2 F2 C2 D2 D2 G2 F2 | B4 G2 c4 B2 A3 A G8 | %15
w: * hath lyne u- pon my|brest,|That loe I live,|that loe I live, that loe I|live of life be- reav- ed quite,|
w: I live * for e- ver|blest,|En- joy- ing peace,|En- joy- ing peace, En- joy- ing|peace, and heaven- ly true de- light.|
[M:3/2] z12 | z12 | z2 D4 D4 D2 |"^(1)" D24 | z4 z4 z2 D2 | D4 D2 D4 D2 D8 z4 D4 D4 D4 | D8 z2 D2 | %22
w: ||O give me|time|to|draw my wear- y breath, Or let me|dye, as|
w: ||De- light, whom|woes|nor|sor- rowes shall a- mate nor feares or|teares dis-|
 F8 G4 | B6 G2 A4 | G12 |[M:4/4] z16 | z2 D4 ^C2 F4 D4 | z4 z2 G4 ^F2 B2 G2 | z16 | %29
w: I de-|sire * the|death.||Wel- come sweete death,|Wel- come sweete death,||
w: turbe her|hap- * py|state.||And thus I leave,|And thus I leave,||
 z2 G4 ^F2 B2 G2 z4 | z4 z2 A2 F4 z2 F2- | F2 D2 z2 d2 B4 z2 d2 | A4 z2 z B G4 z4 | %33
w: wel- come sweete death|sweet death wel-|* come, Oh life, no|life, A hell,|
w: And thus I leave|And thus I|* leave thy hopes, thy|joyes un- true,|
 z2 G4 z2 G4 z2 G2 | z2 G3 G G2 G2 G3 F _E2 | D32 |] %36
w: Then thus, and|thus I bid the world fare- *|well.|
w: and thus, and|thus vaine world a- gaine a- *|due.|

